assets/icons/star-filled.svg

<?xml version="1.0" encoding="UTF-8" standalone="no"?>
<svg viewBox="0 0 24 24" height="24" width="24" version="1.1" id="svg4" sodipodi:docname="star-filled.svg" inkscape:version="1.1 (ce6663b3b7, 2021-05-25)"
   xmlns:inkscape="http://www.inkscape.org/namespaces/inkscape"
   xmlns:sodipodi="http://sodipodi.sourceforge.net/DTD/sodipodi-0.dtd"
   xmlns="http://www.w3.org/2000/svg"
   xmlns:svg="http://www.w3.org/2000/svg">
   <defs id="defs8" />
   <sodipodi:namedview id="namedview6" pagecolor="#ffffff" bordercolor="#666666" borderopacity="1.0" inkscape:pageshadow="2" inkscape:pageopacity="0.0" inkscape:pagecheckerboard="0" showgrid="false" inkscape:snap-page="true" inkscape:zoom="14" inkscape:cx="-12.107143" inkscape:cy="8.25" inkscape:window-width="1920" inkscape:window-height="1016" inkscape:window-x="0" inkscape:window-y="27" inkscape:window-maximized="1" inkscape:current-layer="svg4" />
   <path id="path1034" style="color:#000000;fill:#808080;fill-rule:evenodd;stroke-width:1.52016;stroke-linecap:square;-inkscape-stroke:none" d="M 12 1.6777344 L 11.525391 3.09375 L 9.546875 8.9960938 L 1.828125 9.0664062 L 8.0332031 13.660156 L 5.7148438 21.023438 L 12 16.542969 L 18.285156 21.023438 L 15.966797 13.660156 L 22.171875 9.0664062 L 14.453125 8.9960938 L 12 1.6777344 z " />
</svg>

<svg height="24" width="24" xmlns="http://www.w3.org/2000/svg"><path style="color:#000;fill:gray;stroke-width:1.52016;stroke-linecap:square;-inkscape-stroke:none" d="m12 1.678-.475 1.416-1.978 5.902-7.719.07 6.205 4.594-2.318 7.363L12 16.543l6.285 4.48-2.318-7.363 6.205-4.594-7.719-.07L12 1.678z"/></svg>
